;FLAVOR:Marlin
;TIME:382
;Filament used: 0.157937m
;Layer height: 0.2
;MINX:102.011
;MINY:100.5
;MINZ:0.2
;MAXX:132.989
;MAXY:134.5
;MAXZ:8
;Generated with Cura_SteamEngine 4.11.0
M140 S50
M105
M190 S50
M104 S200
M105
M109 S200
M82 ;absolute extrusion mode
; Ender 3 Custom Start G-code
G92 E0 ; Reset Extruder
G28 ; Home all axes
G1 Z2.0 F3000 ; Move Z Axis up little to prevent scratching of Heat Bed
G1 X0.1 Y20 Z0.3 F5000.0 ; Move to start position
G1 X0.1 Y200.0 Z0.3 F1500.0 E15 ; Draw the first line
G1 X0.4 Y200.0 Z0.3 F5000.0 ; Move to side a little
G1 X0.4 Y20 Z0.3 F1500.0 E30 ; Draw the second line
G92 E0 ; Reset Extruder
G1 Z2.0 F3000 ; Move Z Axis up little to prevent scratching of Heat Bed
G1 X5 Y20 Z0.3 F5000.0 ; Move over to prevent blob squish
G92 E0
G92 E0
G1 F2700 E-5
;LAYER_COUNT:40
;LAYER:0
M107
G0 F6000 X108.123 Y103.837 Z0.2
;TYPE:SKIRT
G1 F2700 E0
G1 F1200 X108.806 Y103.194 E0.0312
G1 X109.907 Y102.356 E0.07722
G1 X110.709 Y101.87 E0.10841
G1 X111.549 Y101.454 E0.13959
G1 X112.422 Y101.11 E0.1708
G1 X113.321 Y100.842 E0.202
G1 X114.239 Y100.652 E0.23318
G1 X115.171 Y100.541 E0.26439
G1 X115.701 Y100.513 E0.28205
G1 X116.022 Y100.504 E0.29273
G1 X116.33 Y100.5 E0.30297
G1 X118.293 Y100.5 E0.36826
G1 X119.152 Y100.511 E0.39683
G1 X120.088 Y100.564 E0.42802
G1 X121.016 Y100.697 E0.4592
G1 X121.93 Y100.909 E0.4904
G1 X122.823 Y101.197 E0.52161
G1 X123.687 Y101.561 E0.55279
G1 X124.518 Y101.997 E0.58401
G1 X125.308 Y102.502 E0.61519
G1 X126.052 Y103.072 E0.64637
G1 X126.745 Y103.704 E0.67756
G1 X127.552 Y104.598 E0.71762
G1 X128.512 Y105.786 E0.76842
G1 X128.728 Y106.059 E0.78
G1 X129.674 Y107.297 E0.83182
G1 X129.878 Y107.573 E0.84323
G1 X130.072 Y107.844 E0.85432
G1 X130.585 Y108.629 E0.88551
G1 X130.877 Y109.153 E0.90546
G1 X131.081 Y109.552 E0.92037
G1 X131.251 Y109.902 E0.93331
G1 X131.385 Y110.19 E0.94387
G1 X131.608 Y110.685 E0.96193
G1 X131.957 Y111.556 E0.99314
G1 X132.155 Y112.177 E1.01482
G1 X132.365 Y112.911 E1.04021
G1 X132.464 Y113.282 E1.05298
G1 X132.562 Y113.676 E1.06648
G1 X132.749 Y114.595 E1.09768
G1 X132.829 Y115.206 E1.11817
G1 X132.894 Y115.838 E1.1393
G1 X132.924 Y116.185 E1.15089
G1 X132.962 Y116.721 E1.16876
G1 X132.989 Y117.659 E1.19997
G1 X132.963 Y118.265 E1.22014
G1 X132.924 Y118.824 E1.23878
G1 X132.896 Y119.16 E1.25
G1 X132.838 Y119.736 E1.26925
G1 X132.704 Y120.664 E1.30044
G1 X132.574 Y121.266 E1.32092
G1 X132.42 Y121.891 E1.34233
G1 X132.331 Y122.226 E1.35386
G1 X132.21 Y122.658 E1.36878
G1 X131.919 Y123.549 E1.39996
G1 X131.663 Y124.175 E1.42245
G1 X131.351 Y124.874 E1.44791
G1 X131.2 Y125.197 E1.45977
G1 X131.028 Y125.551 E1.47286
G1 X130.583 Y126.377 E1.50407
G1 X130.217 Y126.949 E1.52665
G1 X130.021 Y127.232 E1.5381
G1 X129.827 Y127.504 E1.54921
G1 X129.637 Y127.761 E1.55984
G1 X129.255 Y128.265 E1.58088
G1 X129.079 Y128.493 E1.59046
G1 X128.287 Y129.483 E1.63262
G1 X128.13 Y129.7 E1.64153
G1 X127.502 Y130.465 E1.67445
G1 X126.877 Y131.163 E1.70561
G1 X126.194 Y131.806 E1.73681
G1 X125.093 Y132.644 E1.78283
G1 X124.291 Y133.13 E1.81402
G1 X123.451 Y133.546 E1.8452
G1 X122.578 Y133.89 E1.87641
G1 X121.679 Y134.158 E1.90761
G1 X120.761 Y134.348 E1.93879
G1 X119.829 Y134.459 E1.97001
G1 X119.299 Y134.487 E1.98766
G1 X118.978 Y134.496 E1.99834
G1 X118.67 Y134.5 E2.00859
G1 X116.55 Y134.499 E2.0791
G1 X115.849 Y134.489 E2.10242
G1 X114.913 Y134.436 E2.1336
G1 X113.984 Y134.303 E2.16481
G1 X113.071 Y134.091 E2.19599
G1 X112.178 Y133.803 E2.22719
G1 X111.314 Y133.439 E2.25838
G1 X110.483 Y133.003 E2.28959
G1 X109.693 Y132.498 E2.32077
G1 X108.949 Y131.928 E2.35195
G1 X108.256 Y131.296 E2.38314
G1 X107.453 Y130.407 E2.42299
G1 X106.488 Y129.214 E2.47402
G1 X106.272 Y128.941 E2.4856
G1 X105.326 Y127.703 E2.53742
G1 X105.121 Y127.427 E2.54886
G1 X104.922 Y127.149 E2.56023
G1 X104.41 Y126.364 E2.5914
G1 X104.066 Y125.741 E2.61507
G1 X103.914 Y125.437 E2.62637
G1 X103.744 Y125.086 E2.63935
G1 X103.619 Y124.818 E2.64918
G1 X103.395 Y124.322 E2.66728
G1 X103.046 Y123.452 E2.69846
G1 X102.843 Y122.815 E2.7207
G1 X102.634 Y122.083 E2.74602
G1 X102.536 Y121.718 E2.75859
G1 X102.438 Y121.324 E2.77209
G1 X102.251 Y120.405 E2.80328
G1 X102.171 Y119.794 E2.82378
G1 X102.106 Y119.162 E2.84491
G1 X102.075 Y118.809 E2.8567
G1 X102.037 Y118.269 E2.8747
G1 X102.011 Y117.332 E2.90588
G1 X102.037 Y116.726 E2.92605
G1 X102.076 Y116.171 E2.94456
G1 X102.104 Y115.84 E2.9556
G1 X102.162 Y115.264 E2.97486
G1 X102.296 Y114.336 E3.00604
G1 X102.426 Y113.734 E3.02653
G1 X102.58 Y113.109 E3.04794
G1 X102.669 Y112.774 E3.05947
G1 X102.79 Y112.342 E3.07439
G1 X103.081 Y111.451 E3.10556
G1 X103.337 Y110.825 E3.12806
G1 X103.649 Y110.126 E3.15352
G1 X103.811 Y109.78 E3.16622
G1 X103.984 Y109.426 E3.17933
G1 X104.431 Y108.602 E3.21051
G1 X104.742 Y108.113 E3.22978
G1 X104.975 Y107.774 E3.24347
G1 X105.168 Y107.503 E3.25453
G1 X105.364 Y107.237 E3.26552
G1 X105.747 Y106.732 E3.2866
G1 X105.921 Y106.507 E3.29606
G1 X106.713 Y105.517 E3.33823
G1 X106.87 Y105.3 E3.34714
G1 X107.498 Y104.535 E3.38006
G1 X108.123 Y103.837 E3.41122
G0 F6000 X108.422 Y104.104
G1 F1200 X109.093 Y103.474 E3.44183
G1 X110.129 Y102.689 E3.48506
G1 X110.917 Y102.212 E3.5157
G1 X111.743 Y101.806 E3.54631
G1 X112.601 Y101.472 E3.57694
G1 X113.484 Y101.214 E3.60753
G1 X114.387 Y101.034 E3.63816
G1 X115.712 Y100.913 E3.68241
G1 X116.033 Y100.904 E3.69309
G1 X116.33 Y100.9 E3.70297
G1 X118.293 Y100.9 E3.76826
G1 X119.146 Y100.911 E3.79663
G1 X120.065 Y100.964 E3.82725
G1 X120.976 Y101.097 E3.85787
G1 X121.872 Y101.308 E3.88849
G1 X122.747 Y101.596 E3.91913
G1 X123.593 Y101.959 E3.94974
G1 X124.404 Y102.394 E3.98035
G1 X125.175 Y102.898 E4.01099
G1 X125.899 Y103.466 E4.0416
G1 X126.571 Y104.096 E4.07223
G1 X127.241 Y104.849 E4.10576
G1 X128.202 Y106.038 E4.15661
G1 X128.411 Y106.302 E4.16781
G1 X129.357 Y107.54 E4.21963
G1 X129.553 Y107.806 E4.23062
G1 X129.747 Y108.077 E4.2417
G1 X130.25 Y108.848 E4.27232
G1 X130.523 Y109.338 E4.29098
G1 X130.721 Y109.727 E4.30549
G1 X130.891 Y110.077 E4.31843
G1 X131.021 Y110.354 E4.32861
G1 X131.244 Y110.849 E4.34667
G1 X131.585 Y111.704 E4.37729
G1 X131.77 Y112.287 E4.39763
G1 X131.98 Y113.021 E4.42302
G1 X132.076 Y113.378 E4.43532
G1 X132.174 Y113.772 E4.44882
G1 X132.357 Y114.675 E4.47947
G1 X132.431 Y115.247 E4.49865
G1 X132.496 Y115.879 E4.51978
G1 X132.525 Y116.213 E4.53093
G1 X132.563 Y116.749 E4.5488
G1 X132.589 Y117.67 E4.57945
G1 X132.564 Y118.237 E4.59832
G1 X132.525 Y118.796 E4.61696
G1 X132.498 Y119.12 E4.62778
G1 X132.44 Y119.696 E4.64703
G1 X132.308 Y120.607 E4.67765
G1 X132.185 Y121.17 E4.69681
G1 X132.031 Y121.795 E4.71822
G1 X131.946 Y122.118 E4.72933
G1 X131.825 Y122.55 E4.74425
G1 X131.539 Y123.425 E4.77487
G1 X131.298 Y124.011 E4.79595
G1 X130.986 Y124.71 E4.8214
G1 X130.84 Y125.022 E4.83286
G1 X130.668 Y125.376 E4.84595
G1 X130.23 Y126.186 E4.87658
G1 X129.887 Y126.723 E4.89777
G1 X129.695 Y127 E4.90898
G1 X129.501 Y127.272 E4.92009
G1 X129.319 Y127.52 E4.93033
G1 X128.937 Y128.024 E4.95136
G1 X128.766 Y128.243 E4.9606
G1 X128.051 Y129.136 E4.99865
G1 X127.821 Y129.446 E5.01149
G1 X127.193 Y130.211 E5.04441
G1 X126.578 Y130.896 E5.07503
G1 X125.907 Y131.526 E5.10564
G1 X124.871 Y132.311 E5.14887
G1 X124.083 Y132.788 E5.17951
G1 X123.257 Y133.194 E5.21012
G1 X122.399 Y133.528 E5.24074
G1 X121.516 Y133.786 E5.27134
G1 X120.613 Y133.966 E5.30196
G1 X119.288 Y134.087 E5.34622
G1 X118.967 Y134.096 E5.3569
G1 X118.67 Y134.1 E5.36678
G1 X116.556 Y134.099 E5.43709
G1 X115.855 Y134.089 E5.46041
G1 X114.936 Y134.036 E5.49102
G1 X114.025 Y133.903 E5.52165
G1 X113.129 Y133.692 E5.55226
G1 X112.254 Y133.404 E5.5829
G1 X111.408 Y133.041 E5.61352
G1 X110.597 Y132.606 E5.64413
G1 X109.826 Y132.102 E5.67476
G1 X109.102 Y131.533 E5.70539
G1 X108.43 Y130.904 E5.73601
G1 X107.764 Y130.155 E5.76934
G1 X106.798 Y128.962 E5.8204
G1 X106.589 Y128.698 E5.8316
G1 X105.643 Y127.46 E5.88342
G1 X105.447 Y127.194 E5.89441
G1 X105.248 Y126.916 E5.90578
G1 X104.745 Y126.145 E5.9364
G1 X104.423 Y125.559 E5.95864
G1 X104.274 Y125.262 E5.96969
G1 X104.104 Y124.911 E5.98266
G1 X103.983 Y124.654 E5.99211
G1 X103.759 Y124.158 E6.01021
G1 X103.417 Y123.303 E6.04084
G1 X103.227 Y122.705 E6.06171
G1 X103.018 Y121.973 E6.08703
G1 X102.924 Y121.622 E6.09911
G1 X102.826 Y121.228 E6.11262
G1 X102.643 Y120.325 E6.14326
G1 X102.569 Y119.753 E6.16244
G1 X102.504 Y119.121 E6.18357
G1 X102.474 Y118.781 E6.19493
G1 X102.436 Y118.241 E6.21293
G1 X102.411 Y117.321 E6.24354
G1 X102.436 Y116.754 E6.26242
G1 X102.475 Y116.199 E6.28092
G1 X102.502 Y115.88 E6.29157
G1 X102.56 Y115.304 E6.31083
G1 X102.692 Y114.393 E6.34144
G1 X102.815 Y113.83 E6.36061
G1 X102.969 Y113.205 E6.38202
G1 X103.054 Y112.882 E6.39313
G1 X103.175 Y112.45 E6.40805
G1 X103.461 Y111.575 E6.43867
G1 X103.702 Y110.989 E6.45974
G1 X104.014 Y110.29 E6.4852
G1 X104.17 Y109.956 E6.49746
G1 X104.343 Y109.602 E6.51057
G1 X104.783 Y108.793 E6.5412
G1 X105.074 Y108.336 E6.55922
G1 X105.301 Y108.006 E6.57254
G1 X105.494 Y107.735 E6.5836
G1 X105.682 Y107.479 E6.59417
G1 X106.065 Y106.974 E6.61525
G1 X106.234 Y106.757 E6.6244
G1 X106.949 Y105.864 E6.66245
G1 X107.179 Y105.554 E6.67528
G1 X107.807 Y104.789 E6.7082
G1 X108.422 Y104.104 E6.73882
G0 F6000 X108.72 Y104.371
G1 F1200 X109.38 Y103.755 E6.76885
G1 X110.351 Y103.022 E6.80931
G1 X111.124 Y102.555 E6.83935
G1 X111.935 Y102.158 E6.86938
G1 X112.778 Y101.834 E6.89942
G1 X113.647 Y101.586 E6.92948
G1 X114.534 Y101.416 E6.95952
G1 X115.723 Y101.313 E6.99921
G1 X116.044 Y101.304 E7.00989
G1 X116.33 Y101.3 E7.01941
G1 X118.293 Y101.3 E7.0847
G1 X119.14 Y101.311 E7.11287
G1 X120.042 Y101.364 E7.14292
G1 X120.935 Y101.496 E7.17295
G1 X121.813 Y101.707 E7.20298
G1 X122.669 Y101.995 E7.23302
G1 X123.497 Y102.357 E7.26307
G1 X124.289 Y102.791 E7.29311
G1 X125.039 Y103.294 E7.32315
G1 X125.742 Y103.86 E7.35317
G1 X126.392 Y104.487 E7.3832
G1 X126.93 Y105.101 E7.41036
G1 X127.892 Y106.291 E7.46125
G1 X128.093 Y106.545 E7.47202
G1 X129.039 Y107.783 E7.52385
G1 X129.228 Y108.039 E7.53443
G1 X129.422 Y108.31 E7.54551
G1 X129.915 Y109.067 E7.57556
G1 X130.168 Y109.523 E7.59291
G1 X130.361 Y109.902 E7.60705
G1 X130.531 Y110.252 E7.61999
G1 X130.656 Y110.518 E7.62977
G1 X130.879 Y111.013 E7.64783
G1 X131.213 Y111.852 E7.67786
G1 X131.386 Y112.397 E7.69688
G1 X131.596 Y113.131 E7.72227
G1 X131.687 Y113.475 E7.73411
G1 X131.785 Y113.869 E7.74761
G1 X131.964 Y114.754 E7.77764
G1 X132.033 Y115.287 E7.79552
G1 X132.098 Y115.919 E7.81665
G1 X132.126 Y116.242 E7.82743
G1 X132.164 Y116.778 E7.8453
G1 X132.188 Y117.68 E7.87532
G1 X132.165 Y118.209 E7.89293
G1 X132.126 Y118.768 E7.91156
G1 X132.1 Y119.08 E7.92198
G1 X132.042 Y119.656 E7.94123
G1 X131.912 Y120.55 E7.97128
G1 X131.797 Y121.074 E7.98912
G1 X131.643 Y121.699 E8.01053
G1 X131.561 Y122.01 E8.02123
G1 X131.44 Y122.442 E8.03615
G1 X131.158 Y123.3 E8.06619
G1 X130.932 Y123.848 E8.08591
G1 X130.62 Y124.547 E8.11137
G1 X130.48 Y124.848 E8.12241
G1 X130.308 Y125.202 E8.1355
G1 X129.878 Y125.996 E8.16553
G1 X129.556 Y126.498 E8.18537
G1 X129.369 Y126.768 E8.19629
G1 X129.175 Y127.04 E8.2074
G1 X129 Y127.278 E8.21723
G1 X128.618 Y127.782 E8.23826
G1 X128.454 Y127.993 E8.24715
G1 X127.908 Y128.676 E8.27623
G1 X127.512 Y129.192 E8.29787
G1 X126.884 Y129.957 E8.33079
G1 X126.28 Y130.629 E8.36084
G1 X125.62 Y131.245 E8.39087
G1 X124.649 Y131.978 E8.43133
G1 X123.876 Y132.445 E8.46137
G1 X123.065 Y132.842 E8.4914
G1 X122.222 Y133.166 E8.52144
G1 X121.353 Y133.414 E8.55149
G1 X120.466 Y133.584 E8.58153
G1 X119.277 Y133.687 E8.62123
G1 X118.956 Y133.696 E8.63191
G1 X118.67 Y133.7 E8.64142
G1 X116.562 Y133.699 E8.71153
G1 X115.861 Y133.689 E8.73485
G1 X114.959 Y133.636 E8.7649
G1 X114.066 Y133.504 E8.79493
G1 X113.187 Y133.293 E8.82499
G1 X112.331 Y133.005 E8.85503
G1 X111.504 Y132.643 E8.88506
G1 X110.712 Y132.209 E8.9151
G1 X109.962 Y131.706 E8.94513
G1 X109.259 Y131.139 E8.97517
G1 X108.609 Y130.513 E9.00519
G1 X108.075 Y129.904 E9.03213
G1 X107.108 Y128.709 E9.08326
G1 X106.907 Y128.455 E9.09403
G1 X105.961 Y127.217 E9.14585
G1 X105.772 Y126.961 E9.15643
G1 X105.573 Y126.683 E9.1678
G1 X105.08 Y125.926 E9.19785
G1 X104.779 Y125.377 E9.21868
G1 X104.634 Y125.088 E9.22943
G1 X104.464 Y124.737 E9.2424
G1 X104.348 Y124.489 E9.25151
G1 X104.124 Y123.993 E9.26961
G1 X103.789 Y123.154 E9.29966
G1 X103.612 Y122.595 E9.31916
G1 X103.403 Y121.863 E9.34448
G1 X103.313 Y121.525 E9.35611
G1 X103.215 Y121.131 E9.36962
G1 X103.036 Y120.246 E9.39965
G1 X102.967 Y119.713 E9.41752
G1 X102.902 Y119.081 E9.43865
G1 X102.873 Y118.753 E9.44961
G1 X102.835 Y118.213 E9.46761
G1 X102.812 Y117.31 E9.49765
G1 X102.835 Y116.782 E9.51523
G1 X102.874 Y116.227 E9.53374
G1 X102.9 Y115.92 E9.54398
G1 X102.958 Y115.344 E9.56324
G1 X103.088 Y114.45 E9.59329
G1 X103.203 Y113.926 E9.61113
G1 X103.357 Y113.301 E9.63254
G1 X103.439 Y112.99 E9.64324
G1 X103.56 Y112.558 E9.65816
G1 X103.842 Y111.7 E9.6882
G1 X104.068 Y111.152 E9.70791
G1 X104.38 Y110.453 E9.73337
G1 X104.53 Y110.131 E9.74519
G1 X104.703 Y109.777 E9.75829
G1 X105.135 Y108.984 E9.78833
G1 X105.406 Y108.559 E9.80509
G1 X105.627 Y108.238 E9.81805
G1 X105.82 Y107.967 E9.82912
G1 X106.001 Y107.72 E9.8393
G1 X106.384 Y107.215 E9.86038
G1 X106.546 Y107.007 E9.86915
G1 X107.092 Y106.324 E9.89824
G1 X107.488 Y105.808 E9.91987
G1 X108.116 Y105.043 E9.95279
G1 X108.72 Y104.371 E9.98284
G1 F2700 E4.98284
;MESH:kasa-button.stl
G0 F6000 X113.349 Y113.82
G0 X114.224 Y114.461
G0 X113.86 Y116.484
G0 X113.773 Y117.5
G0 X113.86 Y118.516
G0 X114.117 Y119.485
G0 X114.526 Y120.357
G0 X115.059 Y121.085
G0 X116.6 Y122.345
;TYPE:WALL-INNER
G1 F2700 E9.98284
G1 F1200 X115.599 Y121.796 E10.02081
G1 X114.934 Y121.204 E10.05043
G1 X114.378 Y120.444 E10.08175
G1 X113.955 Y119.543 E10.11485
G1 X113.692 Y118.548 E10.14908
G1 X113.602 Y117.5 E10.18407
G1 X113.692 Y116.452 E10.21905
G1 X113.955 Y115.457 E10.25328
G1 X114.378 Y114.556 E10.28639
G1 X114.934 Y113.796 E10.31771
G1 X115.599 Y113.204 E10.34732
G1 X116.6 Y112.655 E10.38529
G1 X116.6 Y112.1 E10.40375
G1 X118.4 Y112.1 E10.46362
G1 X118.4 Y112.655 E10.48208
G1 X119.401 Y113.204 E10.52005
G1 X120.066 Y113.796 E10.54966
G1 X120.622 Y114.556 E10.58098
G1 X121.045 Y115.457 E10.61409
G1 X121.308 Y116.452 E10.64832
G1 X121.398 Y117.5 E10.6833
G1 X121.308 Y118.548 E10.71829
G1 X121.045 Y119.543 E10.75252
G1 X120.622 Y120.444 E10.78563
G1 X120.066 Y121.204 E10.81695
G1 X119.401 Y121.796 E10.84656
G1 X118.4 Y122.345 E10.88453
G1 X118.4 Y122.9 E10.90299
G1 X116.6 Y122.9 E10.96286
G1 X116.6 Y122.345 E10.98132
G0 F6000 X116.2 Y122.582
;TYPE:WALL-OUTER
G1 F1200 X115.366 Y122.125 E11.01295
G1 X114.637 Y121.475 E11.04543
G1 X114.033 Y120.65 E11.07944
G1 X113.577 Y119.679 E11.11512
G1 X113.296 Y118.616 E11.15169
G1 X113.2 Y117.5 E11.18894
G1 X113.296 Y116.384 E11.2262
G1 X113.577 Y115.321 E11.26277
G1 X114.033 Y114.35 E11.29845
G1 X114.637 Y113.525 E11.33246
G1 X115.366 Y112.875 E11.36494
G1 X116.2 Y112.418 E11.39657
G1 X116.2 Y111.7 E11.42045
G1 X118.8 Y111.7 E11.50693
G1 X118.8 Y112.418 E11.53081
G1 X119.634 Y112.875 E11.56244
G1 X120.363 Y113.525 E11.59493
G1 X120.967 Y114.35 E11.62893
G1 X121.423 Y115.321 E11.66461
G1 X121.704 Y116.384 E11.70118
G1 X121.8 Y117.5 E11.73844
G1 X121.704 Y118.616 E11.77569
G1 X121.423 Y119.679 E11.81226
G1 X120.967 Y120.65 E11.84794
G1 X120.363 Y121.475 E11.88195
G1 X119.634 Y122.125 E11.91444
G1 X118.8 Y122.582 E11.94607
G1 X118.8 Y123.3 E11.96995
G1 X116.2 Y123.3 E12.05642
G1 X116.2 Y122.582 E12.0803
G0 F6000 X116.99 Y122.51
;TYPE:SKIN
G1 F1200 X116.99 Y122.114 E12.09348
G1 X115.824 Y121.475 E12.1377
G1 X115.223 Y120.94 E12.16446
G1 X114.717 Y120.248 E12.19297
G1 X114.323 Y119.408 E12.22383
G1 X114.077 Y118.479 E12.2558
G1 X113.992 Y117.5 E12.28848
G1 X114.077 Y116.521 E12.32116
G1 X114.323 Y115.592 E12.35313
G1 X114.717 Y114.752 E12.38399
G1 X115.223 Y114.06 E12.4125
G1 X115.824 Y113.525 E12.43926
G1 X116.99 Y112.886 E12.48349
G1 X116.99 Y112.49 E12.49666
G1 X118.01 Y112.49 E12.53058
G1 X118.01 Y112.886 E12.54375
G1 X119.176 Y113.525 E12.58798
G1 X119.777 Y114.06 E12.61474
G1 X120.283 Y114.752 E12.64325
