;FLAVOR:Marlin
;TIME:4076
;Filament used: 2.90389m
;Layer height: 0.28
;MINX:89.335
;MINY:88.335
;MINZ:0.28
;MAXX:129.8
;MAXY:131.665
;MAXZ:19.04
;Generated with Cura_SteamEngine 4.11.0
M140 S60
M105
M190 S60
M104 S200
M105
M109 S200
M82 ;absolute extrusion mode
; Ender 3 Custom Start G-code
G92 E0 ; Reset Extruder
G28 ; Home all axes
G1 Z2.0 F3000 ; Move Z Axis up little to prevent scratching of Heat Bed
G1 X0.1 Y20 Z0.3 F5000.0 ; Move to start position
G1 X0.1 Y200.0 Z0.3 F1500.0 E15 ; Draw the first line
G1 X0.4 Y200.0 Z0.3 F5000.0 ; Move to side a little
G1 X0.4 Y20 Z0.3 F1500.0 E30 ; Draw the second line
G92 E0 ; Reset Extruder
G1 Z2.0 F3000 ; Move Z Axis up little to prevent scratching of Heat Bed
G1 X5 Y20 Z0.3 F5000.0 ; Move over to prevent blob squish
G92 E0
G92 E0
G1 F1500 E-6.5
;LAYER_COUNT:68
;LAYER:0
M107
;MESH:shelf-support-1x2.stl
G0 F6000 X100.193 Y102.632 Z0.28
;TYPE:WALL-INNER
G1 F1500 E0
G1 F1200 X101.741 Y100.5 E0.12268
G1 X100.193 Y98.368 E0.24537
G1 X97.686 Y99.182 E0.3681
G1 X97.686 Y101.818 E0.49085
G1 X100.193 Y102.632 E0.61358
G0 F6000 X100.04 Y102.162
;TYPE:WALL-OUTER
G1 F1200 X101.247 Y100.5 E0.70923
G1 X100.04 Y98.838 E0.80487
G1 X98.086 Y99.473 E0.90054
G1 X98.086 Y101.527 E0.99618
G1 X100.04 Y102.162 E1.09185
G1 F1500 E-5.40815
G0 F6000 X100.281 Y102.338
G0 X100.267 Y102.86
G0 X99.713 Y101.155
G0 X99.713 Y118.845
G0 X100.267 Y117.14
G0 X101.534 Y119.5
G0 X100.193 Y121.632
;TYPE:WALL-INNER
G1 F1500 E1.09185
G1 F1200 X101.741 Y119.5 E1.21454
G1 X100.193 Y117.368 E1.33722
G1 X97.686 Y118.182 E1.45996
G1 X97.686 Y120.818 E1.5827
G1 X100.193 Y121.632 E1.70544
G0 F6000 X100.04 Y121.162
;TYPE:WALL-OUTER
G1 F1200 X101.247 Y119.5 E1.80108
G1 X100.04 Y117.838 E1.89673
G1 X98.086 Y118.473 E1.9924
G1 X98.086 Y120.527 E2.08804
G1 X100.04 Y121.162 E2.18371
G1 F1500 E-4.31629
G0 F6000 X100.281 Y121.338
G0 X100.267 Y121.86
G0 X99.713 Y120.155
G0 X109.565 Y121.86
G0 X108.11 Y121.86
G0 X108.461 Y127.585
G0 X110.383 Y129.7
;TYPE:WALL-INNER
G1 F1500 E2.18371
G1 F1200 X126.617 Y129.7 E2.93963
G1 X126.91 Y129.581 E2.95436
G1 X128.581 Y127.91 E3.0644
G1 X128.7 Y127.617 E3.07912
G1 X128.7 Y92.383 E4.71976
G1 X128.581 Y92.09 E4.73449
G1 X126.91 Y90.419 E4.84453
G1 X126.617 Y90.3 E4.85925
G1 X110.383 Y90.3 E5.61518
G1 X110.09 Y90.419 E5.6299
G1 X108.419 Y92.09 E5.73994
G1 X108.3 Y92.383 E5.75467
G1 X108.3 Y127.617 E7.39531
G1 X108.419 Y127.91 E7.41003
G1 X110.09 Y129.581 E7.52007
G1 X110.383 Y129.7 E7.5348
G0 F6000 X110.461 Y129.3
;TYPE:WALL-OUTER
G1 F1200 X126.539 Y129.3 E8.28346
G1 X126.684 Y129.241 E8.29075
G1 X128.241 Y127.684 E8.39328
G1 X128.3 Y127.539 E8.40057
G1 X128.3 Y92.461 E10.03395
G1 X128.241 Y92.316 E10.04124
G1 X126.684 Y90.759 E10.14377
G1 X126.539 Y90.7 E10.15106
G1 X110.461 Y90.7 E10.89971
G1 X110.316 Y90.759 E10.907
G1 X108.759 Y92.316 E11.00954
G1 X108.7 Y92.461 E11.01682
G1 X108.7 Y127.539 E12.6502
G1 X108.759 Y127.684 E12.65749
G1 X110.316 Y129.241 E12.76002
G1 X110.461 Y129.3 E12.76731
G0 F6000 X110.377 Y129.731
G1 F1500 E6.26731
G0 F6000 X108.256 Y128.017
G0 X108.256 Y130.19
G0 X90.6 Y130.4
;TYPE:WALL-INNER
G1 F1500 E12.76731
G1 F1200 X90.6 Y89.6 E14.66713
G1 X126.907 Y89.6 E16.35774
G1 X128.341 Y90.066 E16.42795
G1 X129.4 Y92.144 E16.53655
G1 X129.4 Y127.907 E18.20182
G1 X128.934 Y129.341 E18.27203
G1 X126.856 Y130.4 E18.38064
G1 X90.6 Y130.4 E20.06887
G0 F6000 X90.2 Y130.8
;TYPE:WALL-OUTER
G1 F1200 X90.2 Y89.2 E22.00594
G1 X126.969 Y89.2 E23.71806
G1 X128.622 Y89.737 E23.79899
G1 X129.8 Y92.048 E23.91977
G1 X129.8 Y127.969 E25.5924
G1 X129.263 Y129.622 E25.67333
G1 X126.952 Y130.8 E25.79412
G1 X90.2 Y130.8 E27.50544
G0 F6000 X90.47 Y130.53
G0 X90.71 Y130.01
G0 X90.99 Y130.01
;TYPE:SKIN
G1 F1200 X90.99 Y89.99 E29.36894
G1 X110.109 Y89.99 E30.2592
G1 X109.87 Y90.087 E30.27121
G1 X108.087 Y91.87 E30.38863
G1 X107.91 Y92.307 E30.41058
G1 X107.91 Y127.693 E32.0583
G1 X108.087 Y128.13 E32.08026
G1 X109.87 Y129.913 E32.19767
G1 X110.109 Y130.01 E32.20968
G1 X90.99 Y130.01 E33.09994
G1 F1500 E26.59994
G0 F6000 X90.71 Y130.01
G0 X90.81 Y120.894
G0 X89.335 Y120.894
G0 X98.943 Y119.905
G0 X97.496 Y120.894
G1 F1500 E33.09994
G0 F6000 X97.296 Y121.101
G1 F1200 X100.342 Y122.09 E33.24906
G1 X102.223 Y119.5 E33.39811
G1 X100.342 Y116.91 E33.54717
G1 X97.296 Y117.899 E33.69629
G1 X97.296 Y121.101 E33.84539
G1 F1500 E27.34539
G0 F6000 X97.562 Y120.894
G0 X97.854 Y118.305
G0 X100.267 Y117.14
G0 X99.713 Y118.845
G0 X99.713 Y101.155
G0 X100.267 Y102.86
G1 F1500 E33.84539
G0 F6000 X100.342 Y103.09
G1 F1200 X102.223 Y100.5 E33.99444
G1 X100.342 Y97.91 E34.14349
G1 X97.296 Y98.899 E34.29261
G1 X97.296 Y102.101 E34.44171
G1 X100.342 Y103.09 E34.59084
G1 F1500 E28.09084
G0 F6000 X100.228 Y102.773
G0 X101.981 Y100.5
G0 X100.188 Y100.5
G0 X109.487 Y96.688
G0 X109.561 Y92.732
G0 X110.732 Y91.561
G0 X122.126 Y91.509
G0 X128.649 Y88.837
G0 X128.194 Y90.239
G0 X128.98 Y91.561
G1 F1500 E34.59084
G0 F6000 X128.73 Y91.687
G1 F1200 X127.13 Y90.087 E34.6962
G1 X127.076 Y90.065 E34.69891
G1 X128.067 Y90.387 E34.74743
G1 X128.73 Y91.687 E34.81538
G1 F1500 E28.31538
G0 F6000 X128.98 Y91.561
G0 X129.228 Y92.185
G0 X129.229 Y127.879
G0 X128.791 Y129.219
G0 X127.439 Y129.98
G1 F1500 E34.81538
G0 F6000 X127.313 Y129.73
G1 F1200 X128.913 Y128.13 E34.92075
G1 X128.935 Y128.076 E34.92346
G1 X128.613 Y129.067 E34.97198
G1 X127.313 Y129.73 E35.03993
G1 F1500 E28.53993
G0 F6000 X127.439 Y129.98
G0 X126.878 Y130.203
G0 X91.382 Y130.29
G1 F1500 E35.03993
G0 F6000 X91.382 Y129.848
G1 F1200 X91.149 Y129.616 E35.05524
G0 F6000 X91.149 Y129.05
G1 F1200 X91.947 Y129.848 E35.10779
G0 F6000 X92.513 Y129.848
G1 F1200 X91.149 Y128.484 E35.19762
G0 F6000 X91.149 Y127.919
G1 F1200 X93.079 Y129.848 E35.32468
G0 F6000 X93.644 Y129.848
G1 F1200 X91.149 Y127.353 E35.48898
G0 F6000 X91.149 Y126.787
G1 F1200 X94.21 Y129.848 E35.69055
G0 F6000 X94.776 Y129.848
G1 F1200 X91.149 Y126.222 E35.92936
G0 F6000 X91.149 Y125.656
G1 F1200 X95.342 Y129.848 E36.20544
G0 F6000 X95.907 Y129.848
G1 F1200 X91.149 Y125.09 E36.51877
G0 F6000 X91.149 Y124.525
G1 F1200 X96.473 Y129.848 E36.86933
G0 F6000 X97.039 Y129.848
G1 F1200 X91.149 Y123.959 E37.25716
G0 F6000 X91.149 Y123.393
G1 F1200 X97.604 Y129.848 E37.68223
G0 F6000 X98.17 Y129.848
G1 F1200 X91.149 Y122.827 E38.14458
G0 F6000 X91.149 Y122.262
G1 F1200 X98.736 Y129.848 E38.64416
G0 F6000 X99.301 Y129.848
G1 F1200 X91.149 Y121.696 E39.18099
G0 F6000 X91.149 Y121.13
G1 F1200 X99.867 Y129.848 E39.75508
G0 F6000 X100.433 Y129.848
G1 F1200 X91.149 Y120.565 E40.36641
G0 F6000 X91.149 Y119.999
G1 F1200 X100.998 Y129.848 E41.01499
G0 F6000 X101.564 Y129.848
G1 F1200 X91.149 Y119.433 E41.70083
G0 F6000 X91.149 Y118.868
G1 F1200 X102.13 Y129.848 E42.42392
G0 F6000 X102.695 Y129.848
G1 F1200 X91.149 Y118.302 E43.18424
G0 F6000 X91.149 Y117.736
G1 F1200 X103.261 Y129.848 E43.98184
G0 F6000 X103.827 Y129.848
G1 F1200 X91.149 Y117.171 E44.81667
G0 F6000 X91.149 Y116.605
G1 F1200 X104.393 Y129.848 E45.68878
G0 F6000 X104.958 Y129.848
G1 F1200 X91.149 Y116.039 E46.59813
G0 F6000 X91.149 Y115.474
G1 F1200 X105.524 Y129.848 E47.54471
G0 F6000 X106.09 Y129.848
G1 F1200 X97.611 Y121.37 E48.10304
G0 F6000 X97.135 Y120.894
G1 F1200 X91.149 Y114.908 E48.49722
G0 F6000 X91.149 Y114.342
G1 F1200 X97.135 Y120.329 E48.89145
G0 F6000 X97.135 Y119.763
G1 F1200 X91.149 Y113.777 E49.28563
G0 F6000 X91.149 Y113.211
G1 F1200 X97.135 Y119.197 E49.67982
G0 F6000 X97.135 Y118.632
G1 F1200 X91.149 Y112.645 E50.07404
G0 F6000 X91.149 Y112.079
G1 F1200 X97.135 Y118.066 E50.46826
G0 F6000 X97.348 Y117.712
G1 F1200 X91.149 Y111.514 E50.87645
G0 F6000 X91.149 Y110.948
G1 F1200 X97.775 Y117.574 E51.31278
G0 F6000 X98.202 Y117.435
G1 F1200 X91.149 Y110.382 E51.77723
G0 F6000 X91.149 Y109.817
G1 F1200 X98.629 Y117.296 E52.26977
G0 F6000 X99.056 Y117.158
G1 F1200 X91.149 Y109.251 E52.79046
G0 F6000 X91.149 Y108.685
G1 F1200 X99.483 Y117.019 E53.33927
G0 F6000 X99.909 Y116.88
G1 F1200 X91.149 Y108.12 E53.91613
G0 F6000 X91.149 Y107.554
G1 F1200 X100.337 Y116.741 E54.52114
G0 F6000 X100.631 Y117.036
G1 F1200 X107.75 Y124.155 E54.98994
G0 F6000 X107.75 Y124.72
G1 F1200 X102.135 Y119.105 E55.3597
G0 F6000 X102.227 Y119.764
G1 F1200 X107.75 Y125.286 E55.72336
G0 F6000 X107.75 Y125.852
G1 F1200 X101.989 Y120.091 E56.10273
G0 F6000 X101.751 Y120.419
G1 F1200 X107.75 Y126.417 E56.49775
G0 F6000 X107.75 Y126.983
G1 F1200 X101.513 Y120.746 E56.90846
G0 F6000 X101.276 Y121.075
G1 F1200 X107.75 Y127.549 E57.33479
G1 F1500 E50.83479
G0 F6000 X108.19 Y127.549
G0 X109.159 Y128.919
G0 X109.159 Y130.19
G0 X107.787 Y130.29
G1 F1500 E57.33479
G0 F6000 X107.787 Y129.848
G1 F1200 X100.125 Y122.187 E57.83931
G0 F6000 X100.561 Y122.057
G1 F1200 X108.352 Y129.848 E58.35236
G0 F6000 X108.918 Y129.848
G1 F1200 X100.8 Y121.73 E58.88694
G0 F6000 X101.037 Y121.402
G1 F1200 X109.484 Y129.848 E59.44316
G0 F6000 X109.484 Y130.29
G0 X107.221 Y130.29
G0 X107.221 Y129.848
G1 F1200 X99.287 Y121.915 E59.9656
G0 F6000 X98.449 Y121.642
G1 F1200 X106.655 Y129.848 E60.50597
G1 F1500 E54.00597
G0 F6000 X106.655 Y130.29
G0 X108.19 Y130.19
G0 X109.31 Y129.07
G0 X108.461 Y127.585
G0 X108.19 Y123.589
G1 F1500 E60.50597
G0 F6000 X107.75 Y123.589
G1 F1200 X91.149 Y106.988 E61.59918
G0 F6000 X91.149 Y106.423
G1 F1200 X107.75 Y123.023 E62.69235
G0 F6000 X107.75 Y122.458
G1 F1200 X91.149 Y105.857 E63.78555
G0 F6000 X91.149 Y105.291
G1 F1200 X107.75 Y121.892 E64.87876
G0 F6000 X107.75 Y121.326
G1 F1200 X91.149 Y104.726 E65.97193
G0 F6000 X91.149 Y104.16
G1 F1200 X107.75 Y120.761 E67.06513
G0 F6000 X107.75 Y120.195
G1 F1200 X91.149 Y103.594 E68.15834
G0 F6000 X91.149 Y103.028
G1 F1200 X107.75 Y119.629 E69.25154
G0 F6000 X107.75 Y119.064
G1 F1200 X91.149 Y102.463 E70.34475
G0 F6000 X91.149 Y101.897
G1 F1200 X107.75 Y118.498 E71.43795
G0 F6000 X107.75 Y117.932
G1 F1200 X91.149 Y101.331 E72.53115
G0 F6000 X91.149 Y100.766
G1 F1200 X107.75 Y117.366 E73.62433
G0 F6000 X107.75 Y116.801
G1 F1200 X91.149 Y100.2 E74.71753
G0 F6000 X91.149 Y99.634
G1 F1200 X107.75 Y116.235 E75.81073
G0 F6000 X107.75 Y115.669
G1 F1200 X91.149 Y99.069 E76.90391
G0 F6000 X91.149 Y98.503
G1 F1200 X107.75 Y115.104 E77.99711
G0 F6000 X107.75 Y114.538
G1 F1200 X91.149 Y97.937 E79.09031
G0 F6000 X91.149 Y97.372
G1 F1200 X107.75 Y113.972 E80.18349
G0 F6000 X107.75 Y113.407
G1 F1200 X91.149 Y96.806 E81.27669
G0 F6000 X91.149 Y96.24
G1 F1200 X107.75 Y112.841 E82.36989
G0 F6000 X107.75 Y112.275
G1 F1200 X97.957 Y102.483 E83.01475
G0 F6000 X98.795 Y102.755
G1 F1200 X107.75 Y111.71 E83.60445
G0 F6000 X107.75 Y111.144
G1 F1200 X99.632 Y103.026 E84.13903
G0 F6000 X100.421 Y103.25
G1 F1200 X107.75 Y110.578 E84.62163
G0 F6000 X107.75 Y110.013
G1 F1200 X100.66 Y102.922 E85.08855
G0 F6000 X100.897 Y102.594
G1 F1200 X107.749 Y109.446 E85.53976
G0 F6000 X107.749 Y108.881
G1 F1200 X101.136 Y102.267 E85.97527
G0 F6000 X101.373 Y101.939
G1 F1200 X107.749 Y108.315 E86.39515
G0 F6000 X107.749 Y107.749
G1 F1200 X101.611 Y101.611 E86.79934
G0 F6000 X101.85 Y101.284
G1 F1200 X107.749 Y107.183 E87.1878
G0 F6000 X107.749 Y106.618
G1 F1200 X102.087 Y100.956 E87.56065
G0 F6000 X102.326 Y100.629
G1 F1200 X107.749 Y106.052 E87.91777
G0 F6000 X107.749 Y105.486
G1 F1200 X101.51 Y99.247 E88.32862
G0 F6000 X101.155 Y99.504
G0 X100.221 Y98.243
G0 X100.086 Y97.823
G1 F1200 X92.412 Y90.149 E88.83396
G0 F6000 X91.846 Y90.149
G1 F1200 X99.659 Y97.962 E89.34846
G0 F6000 X99.232 Y98.101
G1 F1200 X91.281 Y90.149 E89.87208
G0 F6000 X91.149 Y90.583
G1 F1200 X98.805 Y98.239 E90.37624
G0 F6000 X98.378 Y98.378
G1 F1200 X91.149 Y91.149 E90.85229
G0 F6000 X91.149 Y91.715
G1 F1200 X97.951 Y98.516 E91.30018
G0 F6000 X97.524 Y98.655
G1 F1200 X91.149 Y92.28 E91.71998
G0 F6000 X91.149 Y92.846
G1 F1200 X97.135 Y98.833 E92.1142
G0 F6000 X97.135 Y99.398
G1 F1200 X91.149 Y93.412 E92.50839
G0 F6000 X91.149 Y93.978
G1 F1200 X97.135 Y99.964 E92.90258
G0 F6000 X97.135 Y100.53
G1 F1200 X91.149 Y94.543 E93.2968
G0 F6000 X91.149 Y95.109
G1 F1200 X97.135 Y101.095 E93.69099
G0 F6000 X97.135 Y101.661
G1 F1200 X91.149 Y95.675 E94.08518
G0 F6000 X90.71 Y95.675
G0 X90.782 Y89.782
G0 X92.978 Y89.71
G0 X92.978 Y90.149
G1 F1200 X107.749 Y104.921 E95.0579
G0 F6000 X107.749 Y104.355
G1 F1200 X93.543 Y90.149 E95.99339
G0 F6000 X94.109 Y90.149
G1 F1200 X107.749 Y103.789 E96.89161
G0 F6000 X107.749 Y103.224
G1 F1200 X94.675 Y90.149 E97.75259
G0 F6000 X95.24 Y90.149
G1 F1200 X107.749 Y102.658 E98.57633
G0 F6000 X107.749 Y102.092
G1 F1200 X95.806 Y90.149 E99.3628
G0 F6000 X96.372 Y90.149
G1 F1200 X107.749 Y101.527 E100.11202
G0 F6000 X107.749 Y100.961
G1 F1200 X96.937 Y90.149 E100.82401
G0 F6000 X97.503 Y90.149
G1 F1200 X107.749 Y100.395 E101.49873
G0 F6000 X107.749 Y99.83
G1 F1200 X98.069 Y90.149 E102.13621
G0 F6000 X98.635 Y90.149
G1 F1200 X107.749 Y99.264 E102.73641
G0 F6000 X107.749 Y98.698
G1 F1200 X99.2 Y90.149 E103.29938
G0 F6000 X99.766 Y90.149
G1 F1200 X107.749 Y98.132 E103.82507
G0 F6000 X107.749 Y97.567
G1 F1200 X100.332 Y90.149 E104.31353
G0 F6000 X100.897 Y90.149
G1 F1200 X107.749 Y97.001 E104.76474
G0 F6000 X107.749 Y96.435
G1 F1200 X101.463 Y90.149 E105.17869
G0 F6000 X102.029 Y90.149
G1 F1200 X107.749 Y95.87 E105.55539
G0 F6000 X107.749 Y95.304
G1 F1200 X102.594 Y90.149 E105.89486
G0 F6000 X103.16 Y90.149
G1 F1200 X107.749 Y94.738 E106.19705
G0 F6000 X107.749 Y94.173
G1 F1200 X103.726 Y90.149 E106.462
G0 F6000 X104.291 Y90.149
G1 F1200 X107.749 Y93.607 E106.68972
G0 F6000 X107.749 Y93.041
G1 F1200 X104.857 Y90.149 E106.88016
G0 F6000 X105.423 Y90.149
G1 F1200 X107.749 Y92.476 E107.03337
G0 F6000 X107.854 Y92.015
G1 F1200 X105.988 Y90.149 E107.15625
G0 F6000 X106.554 Y90.149
G1 F1200 X108.067 Y91.662 E107.25588
G0 F6000 X108.349 Y91.379
G1 F1200 X107.12 Y90.149 E107.33684
G0 F6000 X107.685 Y90.149
G1 F1200 X108.632 Y91.096 E107.39921
G0 F6000 X108.915 Y90.813
G1 F1200 X108.251 Y90.149 E107.44293
G0 F6000 X108.817 Y90.149
G1 F1200 X109.198 Y90.53 E107.46802
G0 F6000 X109.481 Y90.248
G1 F1200 X109.383 Y90.149 E107.47451
G0 F6000 X109.383 Y89.71
G0 X126.879 Y89.771
G0 X127.966 Y90.06
G0 X127.826 Y90.491
G1 F1200 X128.011 Y90.675 E107.48666
G1 F1500 E100.98666
G0 F6000 X128.423 Y90.468
G0 X129.19 Y92.194
G0 X128.5 Y92.422
G0 X128.539 Y127.585
G0 X128.042 Y128.606
G1 F1500 E107.48666
G0 F6000 X128.351 Y128.916
G1 F1200 X128.419 Y128.984 E107.49114
G0 F6000 X128.619 Y129.379
G0 X129.254 Y127.998
G0 X129.07 Y127.938
;TYPE:SKIN
G1 F1200 X128.835 Y127.704 E107.49886
G0 F6000 X128.859 Y127.445
G1 F1200 X129.239 Y127.825 E107.51137
G0 F6000 X129.239 Y127.542
G1 F1200 X128.859 Y127.162 E107.52388
G0 F6000 X128.859 Y126.879
G1 F1200 X129.239 Y127.259 E107.53639
G0 F6000 X129.239 Y126.976
G1 F1200 X128.859 Y126.596 E107.5489
G0 F6000 X128.859 Y126.314
G1 F1200 X129.239 Y126.693 E107.5614
G0 F6000 X129.239 Y126.41
G1 F1200 X128.859 Y126.031 E107.57389
G0 F6000 X128.859 Y125.748
G1 F1200 X129.239 Y126.128 E107.58641
G0 F6000 X129.239 Y125.845
G1 F1200 X128.859 Y125.465 E107.59892
G0 F6000 X128.859 Y125.182
G1 F1200 X129.239 Y125.562 E107.61143
G0 F6000 X129.239 Y125.279
G1 F1200 X128.859 Y124.899 E107.62394
G0 F6000 X128.859 Y124.616
G1 F1200 X129.239 Y124.996 E107.63645
G0 F6000 X129.239 Y124.713
G1 F1200 X128.859 Y124.334 E107.64895
G0 F6000 X128.859 Y124.051
G1 F1200 X129.239 Y124.43 E107.66144
G0 F6000 X129.239 Y124.148
G1 F1200 X128.859 Y123.768 E107.67396
G0 F6000 X128.859 Y123.485
G1 F1200 X129.239 Y123.865 E107.68647
G0 F6000 X129.239 Y123.582
G1 F1200 X128.859 Y123.202 E107.69898
G0 F6000 X128.859 Y122.919
G1 F1200 X129.239 Y123.299 E107.71149
G0 F6000 X129.239 Y123.016
G1 F1200 X128.859 Y122.637 E107.72399
G0 F6000 X128.859 Y122.354
G1 F1200 X129.239 Y122.733 E107.73648
G0 F6000 X129.239 Y122.451
G1 F1200 X128.859 Y122.071 E107.74899
G0 F6000 X128.859 Y121.788
G1 F1200 X129.239 Y122.168 E107.76151
G0 F6000 X129.239 Y121.885
G1 F1200 X128.859 Y121.505 E107.77402
G0 F6000 X128.859 Y121.222
G1 F1200 X129.239 Y121.602 E107.78653
G0 F6000 X129.239 Y121.319
G1 F1200 X128.859 Y120.94 E107.79902
G0 F6000 X128.859 Y120.657
G1 F1200 X129.239 Y121.036 E107.81152
G0 F6000 X129.239 Y120.754
