;FLAVOR:Marlin
;TIME:2886
;Filament used: 1.98806m
;Layer height: 0.28
;MINX:89.335
;MINY:97.835
;MINZ:0.28
;MAXX:129.8
;MAXY:122.165
;MAXZ:19.04
;Generated with Cura_SteamEngine 4.11.0
M140 S60
M105
M190 S60
M104 S200
M105
M109 S200
M82 ;absolute extrusion mode
; Ender 3 Custom Start G-code
G92 E0 ; Reset Extruder
G28 ; Home all axes
G1 Z2.0 F3000 ; Move Z Axis up little to prevent scratching of Heat Bed
G1 X0.1 Y20 Z0.3 F5000.0 ; Move to start position
G1 X0.1 Y200.0 Z0.3 F1500.0 E15 ; Draw the first line
G1 X0.4 Y200.0 Z0.3 F5000.0 ; Move to side a little
G1 X0.4 Y20 Z0.3 F1500.0 E30 ; Draw the second line
G92 E0 ; Reset Extruder
G1 Z2.0 F3000 ; Move Z Axis up little to prevent scratching of Heat Bed
G1 X5 Y20 Z0.3 F5000.0 ; Move over to prevent blob squish
G92 E0
G92 E0
G1 F1500 E-6.5
;LAYER_COUNT:68
;LAYER:0
M107
;MESH:shelf-support-1x1.stl
G0 F6000 X100.193 Y112.132 Z0.28
;TYPE:WALL-INNER
G1 F1500 E0
G1 F1200 X101.741 Y110 E0.12268
G1 X100.193 Y107.868 E0.24537
G1 X97.686 Y108.682 E0.3681
G1 X97.686 Y111.318 E0.49085
G1 X100.193 Y112.132 E0.61358
G0 F6000 X100.04 Y111.662
;TYPE:WALL-OUTER
G1 F1200 X101.247 Y110 E0.70923
G1 X100.04 Y108.338 E0.80487
G1 X98.086 Y108.973 E0.90054
G1 X98.086 Y111.027 E0.99618
G1 X100.04 Y111.662 E1.09185
G1 F1500 E-5.40815
G0 F6000 X100.281 Y111.838
G0 X100.267 Y112.36
G0 X99.713 Y110.655
G0 X109.565 Y112.36
G0 X108.11 Y112.36
G0 X108.461 Y118.085
G0 X110.383 Y120.2
;TYPE:WALL-INNER
G1 F1500 E1.09185
G1 F1200 X126.617 Y120.2 E1.84778
G1 X126.91 Y120.081 E1.8625
G1 X128.581 Y118.41 E1.97254
G1 X128.7 Y118.117 E1.98727
G1 X128.7 Y101.883 E2.74319
G1 X128.581 Y101.59 E2.75792
G1 X126.91 Y99.919 E2.86795
G1 X126.617 Y99.8 E2.88268
G1 X110.383 Y99.8 E3.6386
G1 X110.09 Y99.919 E3.65333
G1 X108.419 Y101.59 E3.76337
G1 X108.3 Y101.883 E3.77809
G1 X108.3 Y118.117 E4.53402
G1 X108.419 Y118.41 E4.54874
G1 X110.09 Y120.081 E4.65878
G1 X110.383 Y120.2 E4.6735
G0 F6000 X110.461 Y119.8
;TYPE:WALL-OUTER
G1 F1200 X126.539 Y119.8 E5.42216
G1 X126.684 Y119.741 E5.42945
G1 X128.241 Y118.184 E5.53198
G1 X128.3 Y118.039 E5.53927
G1 X128.3 Y101.961 E6.28793
G1 X128.241 Y101.816 E6.29522
G1 X126.684 Y100.259 E6.39775
G1 X126.539 Y100.2 E6.40504
G1 X110.461 Y100.2 E7.1537
G1 X110.316 Y100.259 E7.16099
G1 X108.759 Y101.816 E7.26352
G1 X108.7 Y101.961 E7.27081
G1 X108.7 Y118.039 E8.01947
G1 X108.759 Y118.184 E8.02676
G1 X110.316 Y119.741 E8.12929
G1 X110.461 Y119.8 E8.13658
G0 F6000 X110.377 Y120.231
G1 F1500 E1.63658
G0 F6000 X108.256 Y118.517
G0 X108.256 Y120.69
G0 X90.6 Y120.9
;TYPE:WALL-INNER
G1 F1500 E8.13658
G1 F1200 X90.6 Y99.1 E9.15168
G1 X126.907 Y99.1 E10.84229
G1 X128.341 Y99.566 E10.9125
G1 X129.4 Y101.644 E11.0211
G1 X129.4 Y118.407 E11.80165
G1 X128.934 Y119.841 E11.87186
G1 X126.856 Y120.9 E11.98046
G1 X90.6 Y120.9 E13.66869
G0 F6000 X90.2 Y121.3
;TYPE:WALL-OUTER
G1 F1200 X90.2 Y98.7 E14.72105
G1 X126.969 Y98.7 E16.43316
G1 X128.622 Y99.237 E16.51409
G1 X129.8 Y101.548 E16.63488
G1 X129.8 Y118.469 E17.42279
G1 X129.263 Y120.122 E17.50372
G1 X126.952 Y121.3 E17.6245
G1 X90.2 Y121.3 E19.33583
G0 F6000 X90.47 Y121.03
G0 X90.71 Y120.51
G0 X90.99 Y120.51
;TYPE:SKIN
G1 F1200 X90.99 Y99.49 E20.31461
G1 X110.109 Y99.49 E21.20487
G1 X109.87 Y99.587 E21.21688
G1 X108.087 Y101.37 E21.3343
G1 X107.91 Y101.807 E21.35625
G1 X107.91 Y118.193 E22.11925
G1 X108.087 Y118.63 E22.14121
G1 X109.87 Y120.413 E22.25862
G1 X110.109 Y120.51 E22.27063
G1 X90.99 Y120.51 E23.16089
G1 F1500 E16.66089
G0 F6000 X90.71 Y120.51
G0 X90.81 Y111.394
G0 X89.335 Y111.394
G0 X98.943 Y110.405
G0 X97.496 Y111.394
G1 F1500 E23.16089
G0 F6000 X97.296 Y111.601
G1 F1200 X100.342 Y112.59 E23.31001
G1 X102.223 Y110 E23.45906
G1 X100.342 Y107.41 E23.60812
G1 X97.296 Y108.399 E23.75724
G1 X97.296 Y111.601 E23.90634
G1 F1500 E17.40634
G0 F6000 X97.562 Y111.394
G0 X100.128 Y111.935
G0 X101.981 Y110
G0 X100.188 Y110
G0 X101.981 Y122.165
G0 X101.981 Y120.69
G0 X126.815 Y120.728
G0 X127.439 Y120.48
G1 F1500 E23.90634
G0 F6000 X127.313 Y120.23
G1 F1200 X128.913 Y118.63 E24.0117
G1 X128.935 Y118.576 E24.01442
G1 X128.613 Y119.567 E24.06294
G1 X127.313 Y120.23 E24.13089
G0 F6000 X127.439 Y120.48
G0 X128.791 Y119.719
G0 X129.229 Y118.379
G0 X129.228 Y101.685
G0 X128.219 Y99.709
G0 X127.162 Y99.299
G0 X127.076 Y99.565
G1 F1200 X128.067 Y99.887 E24.17941
G1 X128.73 Y101.187 E24.24736
G1 X127.13 Y99.587 E24.35272
G1 X127.076 Y99.565 E24.35544
G1 F1500 E17.85544
G0 F6000 X127.162 Y99.299
G0 X109.734 Y99.31
G0 X109.983 Y99.756
G0 X109.734 Y100.118
G1 F1500 E24.35544
G0 F6000 X109.422 Y99.806
G1 F1200 X109.267 Y99.65 E24.36568
G0 F6000 X109.139 Y100.088
G1 F1200 X108.701 Y99.65 E24.39452
G0 F6000 X108.135 Y99.65
G1 F1200 X108.856 Y100.371 E24.442
G0 F6000 X108.574 Y100.654
G1 F1200 X107.57 Y99.65 E24.50811
G0 F6000 X107.004 Y99.65
G1 F1200 X108.291 Y100.937 E24.59286
G0 F6000 X108.008 Y101.22
G1 F1200 X106.438 Y99.65 E24.69625
G0 F6000 X105.872 Y99.65
G1 F1200 X107.821 Y101.599 E24.8246
G0 F6000 X107.749 Y102.092
G1 F1200 X105.307 Y99.65 E24.98541
G0 F6000 X104.741 Y99.65
G1 F1200 X107.749 Y102.658 E25.18349
G0 F6000 X107.749 Y103.224
G1 F1200 X104.175 Y99.65 E25.41884
G0 F6000 X103.61 Y99.65
G1 F1200 X107.749 Y103.789 E25.6914
G0 F6000 X107.749 Y104.355
G1 F1200 X103.044 Y99.65 E26.00123
G0 F6000 X102.478 Y99.65
G1 F1200 X107.749 Y104.921 E26.34834
G0 F6000 X107.749 Y105.486
G1 F1200 X101.913 Y99.65 E26.73265
G0 F6000 X101.347 Y99.65
G1 F1200 X107.749 Y106.052 E27.15423
G0 F6000 X107.749 Y106.618
G1 F1200 X100.781 Y99.65 E27.61309
G0 F6000 X100.215 Y99.649
G1 F1200 X107.749 Y107.183 E28.10921
G0 F6000 X107.749 Y107.749
G1 F1200 X99.649 Y99.649 E28.64261
G0 F6000 X99.084 Y99.649
G1 F1200 X107.749 Y108.315 E29.21325
G0 F6000 X107.749 Y108.881
G1 F1200 X98.518 Y99.649 E29.82116
G0 F6000 X97.952 Y99.649
G1 F1200 X107.749 Y109.446 E30.46631
G0 F6000 X107.749 Y110.012
G1 F1200 X97.386 Y99.649 E31.14873
G0 F6000 X96.821 Y99.649
G1 F1200 X107.749 Y110.578 E31.86839
G0 F6000 X107.749 Y111.143
G1 F1200 X96.255 Y99.649 E32.62529
G0 F6000 X95.689 Y99.649
G1 F1200 X107.749 Y111.709 E33.41946
G0 F6000 X107.749 Y112.275
G1 F1200 X95.124 Y99.649 E34.25087
G0 F6000 X94.558 Y99.649
G1 F1200 X107.749 Y112.84 E35.11952
G0 F6000 X107.749 Y113.406
G1 F1200 X93.992 Y99.649 E36.02544
G0 F6000 X93.427 Y99.649
G1 F1200 X107.749 Y113.972 E36.96861
G0 F6000 X107.749 Y114.537
G1 F1200 X92.861 Y99.649 E37.94901
G0 F6000 X92.295 Y99.649
G1 F1200 X99.998 Y107.352 E38.45626
G0 F6000 X99.571 Y107.49
G1 F1200 X91.73 Y99.649 E38.97261
G0 F6000 X91.164 Y99.649
G1 F1200 X99.144 Y107.63 E39.49813
G0 F6000 X98.717 Y107.768
G1 F1200 X91.149 Y100.2 E39.9965
G0 F6000 X91.149 Y100.766
G1 F1200 X98.29 Y107.907 E40.46675
G0 F6000 X97.863 Y108.045
G1 F1200 X91.149 Y101.331 E40.90888
G0 F6000 X91.149 Y101.897
G1 F1200 X97.436 Y108.184 E41.32289
G0 F6000 X97.135 Y108.449
G1 F1200 X91.149 Y102.463 E41.71707
G0 F6000 X91.149 Y103.028
G1 F1200 X97.135 Y109.015 E42.1113
G0 F6000 X97.135 Y109.581
G1 F1200 X91.149 Y103.594 E42.50552
G0 F6000 X91.149 Y104.16
G1 F1200 X97.135 Y110.146 E42.8997
G0 F6000 X97.135 Y110.712
G1 F1200 X91.149 Y104.726 E43.29389
G0 F6000 X91.149 Y105.291
G1 F1200 X97.135 Y111.278 E43.68811
G0 F6000 X97.785 Y111.927
G1 F1200 X106.207 Y120.349 E44.24272
G0 F6000 X105.641 Y120.349
G1 F1200 X91.149 Y105.857 E45.19704
G0 F6000 X91.149 Y106.423
G1 F1200 X105.076 Y120.349 E46.11412
G0 F6000 X104.51 Y120.349
G1 F1200 X91.149 Y106.988 E46.99397
G0 F6000 X91.149 Y107.554
G1 F1200 X103.944 Y120.349 E47.83654
G0 F6000 X103.379 Y120.349
G1 F1200 X91.149 Y108.12 E48.64187
G0 F6000 X91.149 Y108.685
G1 F1200 X102.813 Y120.349 E49.40997
G0 F6000 X102.247 Y120.349
G1 F1200 X91.149 Y109.251 E50.14079
G0 F6000 X91.149 Y109.817
G1 F1200 X101.681 Y120.349 E50.83434
G0 F6000 X101.116 Y120.349
G1 F1200 X91.149 Y110.382 E51.49069
G0 F6000 X91.149 Y110.948
G1 F1200 X100.55 Y120.349 E52.10976
G0 F6000 X99.984 Y120.349
G1 F1200 X91.149 Y111.514 E52.69156
G0 F6000 X91.149 Y112.079
G1 F1200 X99.419 Y120.349 E53.23615
G0 F6000 X98.853 Y120.349
G1 F1200 X91.149 Y112.645 E53.74347
G0 F6000 X91.149 Y113.211
G1 F1200 X98.287 Y120.349 E54.21352
G0 F6000 X97.722 Y120.349
G1 F1200 X91.149 Y113.777 E54.64633
G0 F6000 X91.149 Y114.342
G1 F1200 X97.156 Y120.349 E55.0419
G0 F6000 X96.59 Y120.349
G1 F1200 X91.149 Y114.908 E55.4002
G0 F6000 X91.149 Y115.474
G1 F1200 X96.025 Y120.349 E55.72126
G0 F6000 X95.459 Y120.349
G1 F1200 X91.149 Y116.039 E56.00508
G0 F6000 X91.149 Y116.605
G1 F1200 X94.893 Y120.349 E56.25163
G0 F6000 X94.328 Y120.349
G1 F1200 X91.149 Y117.171 E56.46094
G0 F6000 X91.149 Y117.736
G1 F1200 X93.762 Y120.349 E56.63301
G0 F6000 X93.196 Y120.349
G1 F1200 X91.149 Y118.302 E56.76781
G0 F6000 X91.149 Y118.868
G1 F1200 X92.63 Y120.349 E56.86534
G0 F6000 X92.065 Y120.349
G1 F1200 X91.149 Y119.433 E56.92566
G0 F6000 X91.149 Y119.999
G1 F1200 X91.499 Y120.349 E56.94871
G1 F1500 E50.44871
G0 F6000 X91.499 Y120.79
G0 X98.758 Y120.69
G0 X98.758 Y122.165
G0 X99.713 Y110.655
G0 X100.267 Y112.36
G0 X98.758 Y111.783
G1 F1500 E56.94871
G0 F6000 X98.623 Y112.199
G1 F1200 X106.773 Y120.349 E57.4854
G0 F6000 X107.338 Y120.349
G1 F1200 X99.46 Y112.471 E58.00418
G0 F6000 X100.298 Y112.743
G1 F1200 X107.904 Y120.349 E58.50504
G0 F6000 X108.47 Y120.349
G1 F1200 X100.61 Y112.49 E59.02261
G0 F6000 X100.848 Y112.162
G1 F1200 X109.035 Y120.349 E59.56173
G1 F1500 E53.06173
G0 F6000 X109.035 Y120.79
G0 X108.325 Y120.69
G0 X109.378 Y119.638
G0 X108.325 Y118.473
G1 F1500 E59.56173
G0 F6000 X107.937 Y118.685
G1 F1200 X101.086 Y111.834 E60.01288
G0 F6000 X101.324 Y111.507
G1 F1200 X107.749 Y117.931 E60.43595
G0 F6000 X107.749 Y117.366
G1 F1200 X101.563 Y111.179 E60.84334
G0 F6000 X101.8 Y110.851
G1 F1200 X107.749 Y116.8 E61.23509
G0 F6000 X107.749 Y116.234
G1 F1200 X102.039 Y110.524 E61.61111
G0 F6000 X102.277 Y110.196
G1 F1200 X107.749 Y115.669 E61.97148
G0 F6000 X107.749 Y115.103
G1 F1200 X101.824 Y109.177 E62.36168
G1 F1500 E55.86168
G0 F6000 X101.468 Y109.434
G0 X101.981 Y110
G0 X100.188 Y110
G0 X109.565 Y110
G0 X108.11 Y110
G0 X108.461 Y118.085
G0 X108.556 Y118.319
G0 X110.181 Y119.944
G0 X110.415 Y120.039
G0 X126.585 Y120.039
G0 X128.1 Y119.048
G1 F1500 E62.36168
G0 F6000 X128.409 Y119.358
G1 F1200 X128.487 Y119.436 E62.36682
G0 F6000 X128.905 Y119.572
G0 X129.26 Y118.479
G0 X129.212 Y118.464
;TYPE:SKIN
G1 F1200 X128.859 Y118.111 E62.37844
G0 F6000 X128.859 Y117.828
G1 F1200 X129.239 Y118.208 E62.39095
G0 F6000 X129.239 Y117.925
G1 F1200 X128.859 Y117.545 E62.40347
G0 F6000 X128.859 Y117.263
G1 F1200 X129.239 Y117.642 E62.41596
G0 F6000 X129.239 Y117.359
G1 F1200 X128.859 Y116.98 E62.42846
G0 F6000 X128.859 Y116.697
G1 F1200 X129.239 Y117.077 E62.44097
G0 F6000 X129.239 Y116.794
G1 F1200 X128.859 Y116.414 E62.45348
G0 F6000 X128.859 Y116.131
G1 F1200 X129.239 Y116.511 E62.46599
G0 F6000 X129.239 Y116.228
G1 F1200 X128.859 Y115.848 E62.4785
G0 F6000 X128.859 Y115.565
G1 F1200 X129.239 Y115.945 E62.49102
G0 F6000 X129.239 Y115.662
G1 F1200 X128.859 Y115.283 E62.50351
G0 F6000 X128.859 Y115
G1 F1200 X129.239 Y115.38 E62.51602
G0 F6000 X129.239 Y115.097
G1 F1200 X128.859 Y114.717 E62.52853
G0 F6000 X128.859 Y114.434
G1 F1200 X129.239 Y114.814 E62.54105
G0 F6000 X129.239 Y114.531
G1 F1200 X128.859 Y114.151 E62.55356
G0 F6000 X128.859 Y113.868
G1 F1200 X129.239 Y114.248 E62.56607
G0 F6000 X129.239 Y113.965
G1 F1200 X128.859 Y113.586 E62.57857
G0 F6000 X128.859 Y113.303
G1 F1200 X129.239 Y113.682 E62.59106
G0 F6000 X129.239 Y113.4
G1 F1200 X128.859 Y113.02 E62.60357
G0 F6000 X128.859 Y112.737
G1 F1200 X129.239 Y113.117 E62.61608
G0 F6000 X129.239 Y112.834
G1 F1200 X128.859 Y112.454 E62.6286
G0 F6000 X128.859 Y112.171
G1 F1200 X129.239 Y112.551 E62.64111
G0 F6000 X129.239 Y112.268
G1 F1200 X128.859 Y111.889 E62.6536
G0 F6000 X128.859 Y111.606
G1 F1200 X129.239 Y111.985 E62.6661
G0 F6000 X129.239 Y111.703
G1 F1200 X128.859 Y111.323 E62.67861
G0 F6000 X128.859 Y111.04
G1 F1200 X129.239 Y111.42 E62.69112
G0 F6000 X129.239 Y111.137
G1 F1200 X128.859 Y110.757 E62.70363
G0 F6000 X128.859 Y110.474
G1 F1200 X129.239 Y110.854 E62.71615
G0 F6000 X129.239 Y110.571
G1 F1200 X128.859 Y110.191 E62.72866
G0 F6000 X128.859 Y109.909
G1 F1200 X129.239 Y110.288 E62.74115
G0 F6000 X129.239 Y110.006
G1 F1200 X128.859 Y109.626 E62.75367
G0 F6000 X128.859 Y109.343
G1 F1200 X129.239 Y109.723 E62.76618
G0 F6000 X129.239 Y109.44
G1 F1200 X128.859 Y109.06 E62.77869
G0 F6000 X128.859 Y108.777
G1 F1200 X129.239 Y109.157 E62.7912
G0 F6000 X129.239 Y108.874
G1 F1200 X128.859 Y108.494 E62.80371
G0 F6000 X128.859 Y108.212
G1 F1200 X129.239 Y108.591 E62.81621
G0 F6000 X129.239 Y108.308
G1 F1200 X128.859 Y107.929 E62.8287
G0 F6000 X128.859 Y107.646
G1 F1200 X129.239 Y108.026 E62.84122
G0 F6000 X129.239 Y107.743
G1 F1200 X128.859 Y107.363 E62.85373
G0 F6000 X128.859 Y107.08
G1 F1200 X129.239 Y107.46 E62.86624
G0 F6000 X129.239 Y107.177
G1 F1200 X128.859 Y106.797 E62.87875
G0 F6000 X128.859 Y106.515
G1 F1200 X129.239 Y106.894 E62.89125
G0 F6000 X129.239 Y106.611
G1 F1200 X128.859 Y106.232 E62.90374
G0 F6000 X128.859 Y105.949
G1 F1200 X129.239 Y106.329 E62.91625
G0 F6000 X129.239 Y106.046
G1 F1200 X128.859 Y105.666 E62.92877
G0 F6000 X128.859 Y105.383
G1 F1200 X129.239 Y105.763 E62.94128
G0 F6000 X129.239 Y105.48
G1 F1200 X128.859 Y105.1 E62.95379
G0 F6000 X128.859 Y104.817
G1 F1200 X129.239 Y105.197 E62.9663
G0 F6000 X129.239 Y104.914
G1 F1200 X128.859 Y104.535 E62.9788
G0 F6000 X128.859 Y104.252
G1 F1200 X129.239 Y104.632 E62.99131
G0 F6000 X129.239 Y104.349
G1 F1200 X128.859 Y103.969 E63.00382
G0 F6000 X128.859 Y103.686
G1 F1200 X129.239 Y104.066 E63.01633
G0 F6000 X129.239 Y103.783
G1 F1200 X128.859 Y103.403 E63.02884
G0 F6000 X128.859 Y103.12
G1 F1200 X129.239 Y103.5 E63.04136
G0 F6000 X129.239 Y103.217
G1 F1200 X128.859 Y102.838 E63.05385
G0 F6000 X128.859 Y102.555
G1 F1200 X129.239 Y102.934 E63.06635
G0 F6000 X129.239 Y102.652
G1 F1200 X128.859 Y102.272 E63.07886
G0 F6000 X128.859 Y101.989
G1 F1200 X129.239 Y102.369 E63.09137
G0 F6000 X129.239 Y102.086
G1 F1200 X128.76 Y101.607 E63.10714
G0 F6000 X128.793 Y101.357
G1 F1200 X129.239 Y101.803 E63.12183
G0 F6000 X129.071 Y101.353
G1 F1200 X128.957 Y101.238 E63.1256
G1 F1500 E56.6256
G0 F6000 X129.047 Y101.193
G0 X128.219 Y99.709
G0 X126.959 Y99.317
G0 X126.813 Y99.674
G1 F1500 E63.1256
G0 F6000 X126.843 Y99.69
G1 F1200 X126.413 Y99.26 E63.13975
G0 F6000 X126.695 Y99.26
G1 F1200 X126.919 Y99.483 E63.14711
G0 F6000 X126.509 Y99.639
G1 F1200 X126.13 Y99.26 E63.15959
G0 F6000 X125.847 Y99.26
G1 F1200 X126.227 Y99.639 E63.17209
G0 F6000 X125.944 Y99.639
G1 F1200 X125.564 Y99.26 E63.18458
G0 F6000 X125.281 Y99.26
G1 F1200 X125.661 Y99.639 E63.19708
G0 F6000 X125.378 Y99.639
G1 F1200 X124.998 Y99.26 E63.20957
G0 F6000 X124.715 Y99.26
G1 F1200 X125.095 Y99.639 E63.22207
G0 F6000 X124.812 Y99.639
G1 F1200 X124.433 Y99.26 E63.23455
G0 F6000 X124.15 Y99.26
G1 F1200 X124.529 Y99.639 E63.24703
G0 F6000 X124.247 Y99.639
G1 F1200 X123.867 Y99.26 E63.25952
G0 F6000 X123.584 Y99.26
G1 F1200 X123.964 Y99.639 E63.27202
G0 F6000 X123.681 Y99.639
G1 F1200 X123.301 Y99.26 E63.28451
G0 F6000 X123.018 Y99.26
G1 F1200 X123.398 Y99.639 E63.29701
G0 F6000 X123.115 Y99.639
G1 F1200 X122.736 Y99.26 E63.30949
G0 F6000 X122.453 Y99.26
G1 F1200 X122.832 Y99.639 E63.32197
G0 F6000 X122.55 Y99.639
G1 F1200 X122.17 Y99.26 E63.33446
G0 F6000 X121.887 Y99.26
G1 F1200 X122.267 Y99.639 E63.34696
G0 F6000 X121.984 Y99.639
G1 F1200 X121.604 Y99.26 E63.35945
G0 F6000 X121.321 Y99.26
G1 F1200 X121.701 Y99.639 E63.37195
G0 F6000 X121.418 Y99.639
G1 F1200 X121.039 Y99.26 E63.38443
G0 F6000 X120.756 Y99.26
G1 F1200 X121.135 Y99.639 E63.39691
G0 F6000 X120.853 Y99.639
G1 F1200 X120.473 Y99.26 E63.4094
G0 F6000 X120.19 Y99.26
G1 F1200 X120.57 Y99.639 E63.4219
G0 F6000 X120.287 Y99.639
G1 F1200 X119.907 Y99.26 E63.43439
G0 F6000 X119.624 Y99.26
G1 F1200 X120.004 Y99.639 E63.44689
G0 F6000 X119.721 Y99.639
G1 F1200 X119.341 Y99.26 E63.45938
G0 F6000 X119.059 Y99.26
G1 F1200 X119.438 Y99.639 E63.47186
G0 F6000 X119.155 Y99.639
